src/assets/tulip/farm.svg

<svg width="20" height="23" viewBox="0 0 20 23" fill="none" xmlns="http://www.w3.org/2000/svg">
<path d="M3.1231 0.778503C4.16102 -0.259496 5.84396 -0.259498 6.88194 0.778479C7.04888 0.94542 7.18897 1.12904 7.30221 1.32398C8.34286 0.52917 9.83754 0.607945 10.7896 1.56004C11.6111 2.3815 11.7824 3.60688 11.3037 4.59683C11.541 4.71773 11.7633 4.87837 11.9619 5.07703C12.8919 6.00703 12.9887 7.45474 12.2522 8.49244L18.4562 14.6973C19.4011 15.6423 19.221 17.2076 18.2143 18.2142C17.2513 19.1772 15.7773 19.3839 14.824 18.5731L14.6973 18.4562L8.49238 12.2522C7.45467 12.9887 6.00692 12.892 5.07692 11.962C4.94025 11.8253 4.82158 11.6775 4.72091 11.5214C5.11676 13.3929 4.89195 14.9196 3.98253 16.0519L3.84039 16.2194C2.64516 17.5541 3.24754 20.1353 5.10898 20.1353C7.2493 20.1353 7.90158 17.5629 6.08765 16.6299C5.59652 16.3773 5.40315 15.7744 5.65576 15.2833C5.90836 14.7921 6.51128 14.5988 7.00241 14.8514C10.6966 16.7514 9.33141 22.1353 5.10898 22.1353C1.32033 22.1353 0.176898 17.5308 2.23293 15.0224L2.35044 14.8852C2.9595 14.205 3.09145 13.0837 2.64879 11.447C2.25019 11.3245 1.87535 11.105 1.56002 10.7896C0.607927 9.83755 0.529153 8.34287 1.3237 7.30099C1.12904 7.18898 0.94542 7.04889 0.778481 6.88195C-0.259494 5.84397 -0.259494 4.16105 0.778484 3.1231L3.1231 0.778503ZM10.863 9.933L9.933 10.863L16.1115 17.042C16.1943 17.1247 16.5119 17.0882 16.8001 16.8C17.0594 16.5407 17.1149 16.2575 17.0631 16.1432L17.042 16.1115L10.863 9.933ZM10.5477 6.49125C10.2908 6.23432 9.87426 6.23432 9.61733 6.49125L6.49114 9.6174C6.23421 9.87432 6.23421 10.2909 6.49114 10.5478C6.74806 10.8047 7.16465 10.8047 7.42157 10.5478L10.5477 7.42163C10.8046 7.16471 10.8046 6.74817 10.5477 6.49125ZM9.37542 2.97425C9.1185 2.71733 8.70196 2.71733 8.44503 2.97425L2.97423 8.44505C2.71731 8.70197 2.71731 9.11851 2.97423 9.37543C3.23116 9.63236 3.64775 9.63236 3.90467 9.37544L9.37543 3.90462C9.63234 3.64772 9.63235 3.23118 9.37542 2.97425ZM5.46772 2.19269C5.2108 1.93577 4.79424 1.93577 4.53733 2.1927L2.19269 4.53732C1.93577 4.79423 1.93577 5.21081 2.1927 5.46774C2.44962 5.72466 2.8662 5.72466 3.12312 5.46774L5.46772 3.1231C5.72465 2.86617 5.72465 2.44962 5.46772 2.19269Z" fill="#979797"/>
</svg>

<svg width="20" height="23" fill="none" xmlns="http://www.w3.org/2000/svg"><path d="M3.123.779a2.658 2.658 0 014.18.545 2.656 2.656 0 014 3.273 2.659 2.659 0 01.949 3.896l6.204 6.204c.945.945.765 2.51-.242 3.517-.963.963-2.437 1.17-3.39.36l-.127-.118-6.205-6.204a2.659 2.659 0 01-3.771-.73c.396 1.87.17 3.398-.738 4.53l-.143.167c-1.195 1.335-.592 3.916 1.269 3.916 2.14 0 2.793-2.572.979-3.505a1 1 0 11.914-1.779c3.695 1.9 2.33 7.284-1.893 7.284-3.789 0-4.932-4.604-2.876-7.113l.117-.137c.61-.68.741-1.801.299-3.438a2.658 2.658 0 01-1.325-4.146 2.658 2.658 0 01-.545-4.178L3.122.78zm7.74 9.154l-.93.93 6.178 6.179c.083.083.4.046.69-.242.258-.26.314-.543.262-.657l-.021-.032-6.179-6.178zm-.315-3.442a.658.658 0 00-.93 0L6.49 9.617a.658.658 0 10.93.93l3.127-3.125a.658.658 0 000-.93zM9.375 2.974a.658.658 0 00-.93 0l-5.47 5.471a.658.658 0 10.93.93l5.47-5.47a.658.658 0 000-.93zm-3.907-.781a.658.658 0 00-.93 0L2.192 4.537a.658.658 0 00.93.93l2.345-2.344a.658.658 0 000-.93z" fill="#979797"/></svg>
